X: 30209
T: Old Grey Goose, The
R: jig
M: 6/8
K: Eminor
F|GBG FAF|GEE EFE|DFA dAG|FDD DEF|
GFG AGA|BAB gfg|edB BAF GEE E2:|
|:D|GFG dBG|GFG dBG|A2A e^cA|AEA e^cA|
GFG dBG|GBd gfg|edB BAF|GEE E2:|
|:d|efe edB|def gfe|fdd add|fag fed|
efe edB|def gfg|edB BAF|GEE E2:|
|:c|BGG AFF|GEE E2c|BGG AdA|FDD D2c|
BGG AFF|GEE gfg|edB BAF|GEE E2:|
|:f|gbg faf|gee e2f|gbg fag|fdd def|
gbg fef|def gfe|edB BAF|GEE E2:|
|:f|gdB BAB|GEE Eef|gdB dAG|FDD DEF|
GFG AGA|BAB gfg|edB BAF|GEE E2:|

